X: 42775
T: White Rose, The
R: waltz
M: 3/4
K: Gmajor
|:D E<F|G2 B3 G|AB c3 A|B2 d3 B|c2 e2 f>e|d2 g3 f|g2 a2 b2|a4- ab|a3 D EF|
G2 B3 G|A2 c3 A|B2 d3 B|c2 e2 f>e|d2 g2 a2|bc' b2 fa|g4- ga|g3:|
|:d ga|b6|a3 b- ba|g2 f2 e2|d4 (3DE<F|G4 FG|AG- G2 EG|F4- FG|F3 D EF|
G2 B3 G|AB c3 A|B2 d3 B|c2 e2 f>e|d2 g2 a2|bc' b2 fa|g4- ga|g3:|

